X: 48
T: Patrick Kelly
C: Carolan
%R: jig
B: "The Hibernian Muse" p.29 #2
F: http://imslp.org/wiki/The_Hibernian_Muse_%28Various%29
Z: 2015 John Chambers <jc:trillian.mit.edu>
P: No. XLVIII.
M: 6/8
L: 1/8
K: Gdor
%%slurgraces 0
%%graceslurs 0
% - - - - - - - - - - - - - - - - - - - - - - - - - - - - -
V: 1
[|\
G2d dB/c/d | cAF (A/B/c)A |\
{G}FDD DGG | AFF Acc |\
(d/e/f)f fg/f/e | f3- f2g |\
agf {f}edc | agf {f}edc |\
AFA AFA |
c3 {de}d3 |]|\
{G}FDD DGG | {G}FDD FAA |\
c2c cAF | cAF c2c |\
d2d dAd | cAc dfd |\
cAF fAF | [G3D3] [G3D3] |]
% - - - - - - - - - - - - - - - - - - - - - - - - - - - - -
V: 2 clef=bass middle=d
[|\
g3 g3 | a3 f3 | d3 g3 | f3 F3 |\
B3 c3 | fcA F2z |\
f3 c3 | f3 c3 | f3 f3 |
a3 d3 |]| d3 g3 | d3 d3 | e3 f3 | a3 f3 |\
b3 b3 | a3 f3 | a3 d3 | g3 G3 |]

%%sep 2 1 500
%%sep 1 1 500

